X:111
T:The Blackbird    Set (long) Dance  Allan's  # 111   pp28
C:Trad/Anon
B:Allan's Irish Fiddler (pub. Mozart Allen,  Glascow) date unknown
Z:FROM ALLAN'S TO NOTEWORTHY, FROM NOTEWORTHY TO ABC, MIDI AND .TXT BY VINCE
BRENNAN Dec. 2002 (HTTP://WWW.SOSYOURMOM.COM)
I:abc2nwc
M:2/4
L:1/16
K:D
(d3c)|B4B3d| =c4B3c| A3B A3G| A3B =c3A|d3^c d3e|d3c A3F|
G3A G3F|E4E3F|{A}F3E F3G|A4f3e|d3c d3e|d3c A3F|
G3A G3F|D4D4|D8|z4:|(d3e)|f3e d3e|
f4g4|a3b a3g|f3g a3f|g4 {a}g3f|g3b a3f|
g3a g3f|d4d3ef3e d3e|f4g4|a3b a3g|f3g a3f|
g3a g3f|d4d4|d8|z4f3g|a3b a3g|f3g a3f|g3a g3f|f4e4|
d3c A3G|A3B d3e|f3e f3g|a4a4|A3B A3G|F3G A3B|
=c3B c3e|d3^c A3F|G3A G3F|D4D4|D8|z4:|
